X:=3
T:At Long Last Love
C:Cole Porter
L:1/4
M:C
I:linebreak $
K:C
"Db7" z E F G ||"C6" A2 A2 |"Bø" z G (3A G F |"Am" E4 |$Ox/"G6" z E F G ||"F" A A A A |
"Em" A G"Eb7" (3A G E |"Dm" D4 |$"Dm/C" z F G A |"Dm6" B2 B2 |"Dbø" z A (3B A G |"Dm/C" F4 |$
"Bø" z ^C (3D F A |"Dm" c3 A |"G4" c3 A |"C6""_D.C. al Coda" c4 ||$Ox/"C7" (3A G A"Gm" ^A c |
"D#o" d d"Eø" d d |"F6" d4 |"F" z A B c |$"Gbø" e2 e2 |"Fm6" z d (3B d c |"Em" G4 |
"Eb7" z E (3E F G |$"Dm" A4 |"Db7" e4 |"C6" c4 |]

